assets/features/home/starmaker.svg

<svg width="212" height="48" viewBox="0 0 212 48" fill="none" xmlns="http://www.w3.org/2000/svg">
<mask id="mask0_4887_15018" style="mask-type:alpha" maskUnits="userSpaceOnUse" x="0" y="0" width="209" height="48">
<path d="M38.4414 0C43.9066 0 48.3376 4.43426 48.3379 9.9043V38.0957C48.3376 43.5657 43.9066 48 38.4414 48H9.89551C4.43049 47.9998 0.000250703 43.5656 0 38.0957V9.9043C0.000250793 4.43438 4.43049 0.00019582 9.89551 0H38.4414ZM26.877 7.17871C25.7442 4.97279 22.5937 4.97279 21.4609 7.17871L18.2852 13.3613C17.8505 14.2076 17.0463 14.8023 16.1104 14.9688L9.28027 16.1826C6.89374 16.607 5.93515 19.5175 7.60156 21.2793L12.5264 26.4854C13.1629 27.1585 13.4584 28.0851 13.3301 29.0029L12.3359 36.1074L12.3223 36.2217C12.0786 38.562 14.4853 40.2863 16.6201 39.3008L16.7236 39.251L22.7969 36.1826C23.6597 35.7468 24.6782 35.7468 25.541 36.1826L31.6143 39.251L31.7168 39.3008C33.8863 40.3026 36.3375 38.5055 36.002 36.1074L35.0068 29.0029C34.8865 28.1423 35.1396 27.274 35.6963 26.6143L35.8115 26.4854L40.7363 21.2793C42.4027 19.5175 41.4441 16.607 39.0576 16.1826L32.2275 14.9688C31.2914 14.8023 30.4864 14.2077 30.0518 13.3613L26.877 7.17871ZM23.4922 8.22363C23.7754 7.67222 24.5625 7.67221 24.8457 8.22363L28.0205 14.4062C28.7812 15.8876 30.1898 16.9285 31.8281 17.2197L38.6582 18.4336C39.2547 18.5398 39.4937 19.2676 39.0771 19.708L34.1533 24.9141C33.039 26.0922 32.5203 27.7137 32.7451 29.3203L33.7402 36.4248C33.8251 37.0336 33.191 37.488 32.6426 37.2109L26.5703 34.1426C26.277 33.9944 25.9729 33.8748 25.6631 33.7842L26.6279 24.4531C25.9087 24.8904 25.0641 25.1426 24.1611 25.1426C23.2581 25.1425 22.4135 24.8904 21.6943 24.4531L22.6592 33.7881C22.3546 33.8781 22.0561 33.9968 21.7676 34.1426L15.6943 37.2109C15.146 37.4876 14.5127 37.0335 14.5977 36.4248L15.5918 29.3203C15.8166 27.7138 15.2988 26.0922 14.1846 24.9141L9.25977 19.708C8.84313 19.2675 9.08302 18.5397 9.67969 18.4336L16.5098 17.2197C18.148 16.9284 19.5568 15.8874 20.3174 14.4062L23.4922 8.22363ZM23.9707 27.0479C24.1809 27.0479 24.3516 27.2183 24.3516 27.4287V29.333C24.3516 29.5434 24.1809 29.7139 23.9707 29.7139C23.7606 29.7137 23.5908 29.5433 23.5908 29.333V27.4287C23.5908 27.2184 23.7606 27.048 23.9707 27.0479ZM24.3594 16.7617C22.2574 16.7617 20.5528 18.4674 20.5527 20.5713C20.5527 22.6752 22.2573 24.3809 24.3594 24.3809C26.4613 24.3807 28.165 22.6751 28.165 20.5713C28.165 18.4675 26.4612 16.7619 24.3594 16.7617Z" fill="url(#paint0_radial_4887_15018)"/>
<path d="M133.677 17.4933C133.858 17.6477 132.87 18.9934 133.812 18.8526C134.753 18.7118 136.441 17.4933 137.599 17.4933H143.956V35.0929C143.348 35.0252 140.44 35.3501 140.44 34.6867V20.7425C137.951 20.3336 133.677 22.3968 133.677 25.2101V35.0929H130.16V20.7425C128.004 20.6369 124.928 21.4844 123.884 23.5313C123.627 24.0349 123.126 26.0846 123.126 26.5639V35.0929H119.877C120.105 30.0675 118.292 23.7831 122.342 19.8246C123.175 19.0096 125.959 17.4933 127.046 17.4933H133.674H133.677Z" fill="#333333"/>
<path d="M79.0318 17.4934C78.8858 18.2596 79.4268 20.7019 78.5882 20.9754L67.5402 21.0187C65.9469 21.5521 65.9171 23.6397 67.5132 24.2841C69.3689 25.0314 72.7937 24.2029 74.9903 24.6523C79.462 25.5729 80.3033 31.9954 76.4213 34.24C76.1346 34.4052 74.2139 35.0929 74.0272 35.0929H62.8007V31.573H73.7567C75.3203 31.573 76.0453 28.8545 74.7063 28.1831C73.8027 27.7309 69.7612 28.1885 68.3464 28.0504C64.2507 27.6442 61.5915 24.1352 63.4716 20.1956C63.8963 19.3048 65.7683 17.4907 66.7205 17.4907H79.0291L79.0318 17.4934Z" fill="#333333"/>
<path d="M168.033 12.6197V26.4285C169.48 25.7002 176.459 17.4934 177.095 17.4934H181.558L173.462 26.2552L181.829 35.0929H177.365C176.914 35.0929 171.701 28.8545 170.873 28.8545C170.275 28.8545 168.444 31.0206 168.241 31.6434C167.865 32.7914 168.079 33.9259 168.035 35.0929C167.427 35.0252 164.516 35.3474 164.516 34.684V12.6169H168.033V12.6197Z" fill="#2F2F2F"/>
<path d="M84.1717 12.6196V17.0872C84.1717 17.117 84.5477 17.4933 84.5775 17.4933H89.5821V20.7425H84.5775C84.5477 20.7425 84.1717 21.1188 84.1717 21.1486V26.0223C84.1717 26.1361 84.5017 27.8419 84.5666 28.0639C85.1861 30.1298 87.6451 31.3699 89.5956 31.73L89.5794 35.0956C85.4567 35.0468 81.5125 31.7165 80.9525 27.6198C80.3574 23.2714 81.031 18.7713 80.9363 14.3687C80.9282 13.9409 80.6387 13.237 80.6847 13.0474C80.8687 12.2649 83.4981 12.7469 84.169 12.6196H84.1717Z" fill="#333333"/>
<path d="M201.847 35.0929C201.082 34.9467 198.642 35.4882 198.368 34.6489C198.114 33.8745 198.244 27.7796 198.333 26.5666C198.734 21.2245 202.045 17.312 207.669 17.2199C209.736 17.1847 208.627 19.2777 208.881 20.7425C206.333 20.7777 203.222 21.3626 202.369 24.1081C202.242 24.517 201.847 26.2688 201.847 26.5612V35.0902V35.0929Z" fill="#2F2F2F"/>
<path d="M112.576 35.0929C111.811 34.9466 109.371 35.4882 109.097 34.6488C108.838 33.8555 108.981 28.0666 109.062 26.8373C109.273 23.6071 109.928 21.2786 112.571 19.2479C113.896 18.2298 117.021 17.0439 118.666 17.2009C120.327 17.358 119.38 19.4699 119.612 20.7452C117.337 20.599 114.283 21.506 113.236 23.7046C113.041 24.1135 112.576 25.6839 112.576 26.0223V35.0929Z" fill="#333333"/>
<path d="M187.239 31.2995L196.415 21.3815C193.337 16.4726 186.052 16.1748 182.497 20.7344C176.497 28.4322 185.416 39.3005 194.519 33.3086C197.549 31.3131 196.321 31.2156 194.378 28.8762C192.263 30.7228 190.22 32.2526 187.239 31.2995ZM184.266 28.3238C182.992 23.7859 186.628 19.7949 191.297 21.2868C191.416 21.7525 191.105 21.8283 190.894 22.099C189.487 23.905 186.888 26.526 185.078 27.9204C184.807 28.1289 184.734 28.4457 184.266 28.3238Z" fill="#333333"/>
<path d="M158.207 18.5277C146.499 12.2379 139.514 31.8789 152.283 34.7463C155.846 35.5451 159.16 34.619 162.622 35.0902C162.511 29.2282 164.491 21.9014 158.21 18.525L158.207 18.5277ZM159.376 31.1668C159.376 31.1966 159 31.573 158.97 31.573C157.369 31.573 155.04 31.7842 153.56 31.573C149.083 30.9367 147.243 25.3644 150.476 22.2588C152.992 19.8409 157.85 20.97 158.976 24.257C159.04 24.4438 159.376 25.933 159.376 26.0224V31.1668Z" fill="#2F2F2F"/>
<path d="M100.203 17.5583C89.0979 15.8119 85.9707 31.7923 96.4046 34.6272C100.03 35.6127 103.571 34.7111 107.166 35.0929V24.127C107.166 21.4465 102.716 17.9537 100.203 17.5583ZM103.92 31.573H98.1034C97.9844 31.573 96.7644 31.1127 96.5101 31.0017C91.1186 28.6379 93.1178 20.1414 99.7049 21.0376C101.699 21.3084 103.922 23.7425 103.922 25.7516V31.573H103.92Z" fill="#2F2F2F"/>
</mask>
<g mask="url(#mask0_4887_15018)">
<rect width="212" height="48" fill="#D9D9D9"/>
</g>
<defs>
<radialGradient id="paint0_radial_4887_15018" cx="0" cy="0" r="1" gradientTransform="matrix(-42.7766 -24.8276 25.0022 -40.3092 48.3375 36)" gradientUnits="userSpaceOnUse">
<stop stop-color="#FF8951"/>
<stop offset="0.33" stop-color="#F64990"/>
<stop offset="0.66" stop-color="#A448D1"/>
<stop offset="1" stop-color="#6E47FB"/>
</radialGradient>
</defs>
</svg>

<svg xmlns="http://www.w3.org/2000/svg" width="212" height="48" fill="none" viewBox="0 0 212 48"><mask id="b" width="209" height="48" x="0" y="0" maskUnits="userSpaceOnUse" style="mask-type:alpha"><path fill="url(#a)" d="M38.441 0c5.466 0 9.897 4.434 9.897 9.904v28.192c0 5.47-4.431 9.904-9.897 9.904H9.896C4.43 48 0 43.566 0 38.096V9.904C0 4.434 4.43 0 9.896 0zM26.877 7.179c-1.133-2.206-4.283-2.206-5.416 0l-3.176 6.182a3.05 3.05 0 0 1-2.175 1.608l-6.83 1.214c-2.386.424-3.345 3.334-1.678 5.096l4.924 5.206c.637.674.932 1.6.804 2.518l-.994 7.104-.014.115c-.243 2.34 2.163 4.064 4.298 3.079l.104-.05 6.073-3.068a3.04 3.04 0 0 1 2.744 0l6.073 3.068.103.05c2.17 1.002 4.62-.796 4.285-3.194l-.995-7.104a3.05 3.05 0 0 1 .69-2.389l.114-.129 4.925-5.206c1.667-1.762.708-4.672-1.678-5.096l-6.83-1.214a3.05 3.05 0 0 1-2.176-1.608zm-3.385 1.045a.76.76 0 0 1 1.354 0l3.174 6.182a5.33 5.33 0 0 0 3.808 2.814l6.83 1.214a.762.762 0 0 1 .42 1.274l-4.925 5.206a5.34 5.34 0 0 0-1.408 4.406l.995 7.105a.762.762 0 0 1-1.097.786l-6.073-3.068a5.3 5.3 0 0 0-.907-.359l.965-9.33a4.75 4.75 0 0 1-2.467.689 4.73 4.73 0 0 1-2.467-.69l.965 9.335a5.3 5.3 0 0 0-.891.355l-6.074 3.068a.762.762 0 0 1-1.096-.786l.994-7.105a5.34 5.34 0 0 0-1.407-4.406L9.26 19.708a.762.762 0 0 1 .42-1.274l6.83-1.214a5.33 5.33 0 0 0 3.807-2.814zm.479 18.824c.21 0 .38.17.38.38v1.905a.381.381 0 0 1-.76 0v-1.904c0-.21.17-.381.38-.381m.388-10.286a3.81 3.81 0 0 0-3.806 3.81 3.81 3.81 0 0 0 3.806 3.809 3.81 3.81 0 0 0 3.806-3.81 3.81 3.81 0 0 0-3.806-3.81"/><path fill="#333" d="M133.677 17.493c.181.155-.807 1.5.135 1.36.941-.141 2.629-1.36 3.787-1.36h6.357v17.6c-.608-.068-3.516.257-3.516-.406V20.743c-2.489-.41-6.763 1.654-6.763 4.467v9.883h-3.517v-14.35c-2.156-.106-5.232.741-6.276 2.788-.257.504-.758 2.554-.758 3.033v8.529h-3.249c.228-5.026-1.585-11.31 2.465-15.268.833-.815 3.617-2.332 4.704-2.332zm-54.645 0c-.146.767.395 3.209-.444 3.482l-11.048.044c-1.593.533-1.623 2.62-.027 3.265 1.856.747 5.28-.081 7.477.368 4.472.92 5.313 7.343 1.431 9.588-.286.165-2.207.853-2.394.853H62.801v-3.52h10.956c1.563 0 2.288-2.718.95-3.39-.904-.452-4.946.006-6.36-.133-4.096-.406-6.755-3.915-4.875-7.854.424-.891 2.296-2.705 3.249-2.705h12.308z"/><path fill="#2f2f2f" d="M168.033 12.62v13.809c1.447-.729 8.426-8.936 9.062-8.936h4.463l-8.096 8.762 8.367 8.838h-4.464c-.451 0-5.664-6.239-6.492-6.239-.598 0-2.429 2.167-2.632 2.79-.376 1.147-.162 2.282-.206 3.449-.608-.068-3.519.254-3.519-.409V12.617h3.517z"/><path fill="#333" d="M84.172 12.62v4.467c0 .03.376.406.406.406h5.004v3.25h-5.004c-.03 0-.406.376-.406.406v4.873c0 .114.33 1.82.395 2.042.62 2.066 3.078 3.306 5.029 3.666l-.017 3.366c-4.122-.05-8.066-3.38-8.626-7.476-.596-4.349.078-8.849-.017-13.251-.008-.428-.297-1.132-.251-1.322.184-.782 2.813-.3 3.484-.427z"/><path fill="#2f2f2f" d="M201.847 35.093c-.765-.146-3.205.395-3.479-.444-.254-.775-.124-6.87-.035-8.082.401-5.343 3.712-9.255 9.336-9.347 2.067-.035.958 2.058 1.212 3.523-2.548.035-5.659.62-6.512 3.365-.127.409-.522 2.16-.522 2.453z"/><path fill="#333" d="M112.576 35.093c-.765-.146-3.205.395-3.479-.444-.259-.794-.116-6.582-.035-7.812.211-3.23.866-5.558 3.509-7.59 1.325-1.017 4.45-2.203 6.095-2.046 1.661.157.714 2.269.946 3.544-2.275-.146-5.329.761-6.376 2.96-.195.409-.66 1.979-.66 2.317zm74.663-3.793 9.176-9.919c-3.078-4.908-10.363-5.206-13.918-.647-6 7.698 2.919 18.566 12.022 12.575 3.03-1.996 1.802-2.093-.141-4.433-2.115 1.847-4.158 3.377-7.139 2.423m-2.973-2.976c-1.274-4.538 2.362-8.53 7.031-7.037.119.466-.192.541-.403.812-1.407 1.806-4.006 4.427-5.816 5.821-.271.209-.344.526-.812.404"/><path fill="#2f2f2f" d="M158.207 18.528c-11.708-6.29-18.693 13.35-5.924 16.218 3.563.8 6.877-.127 10.339.344-.111-5.862 1.869-13.189-4.412-16.565zm1.169 12.639c0 .03-.376.406-.406.406-1.601 0-3.93.211-5.41 0-4.477-.636-6.317-6.209-3.084-9.314 2.516-2.418 7.374-1.289 8.5 1.998.064.187.4 1.676.4 1.765zm-59.173-13.609c-11.105-1.746-14.232 14.234-3.798 17.07 3.625.985 7.166.083 10.761.465V24.127c0-2.68-4.45-6.173-6.963-6.569m3.717 14.015h-5.817c-.119 0-1.339-.46-1.593-.571-5.391-2.364-3.392-10.86 3.195-9.964 1.994.27 4.217 2.704 4.217 4.714v5.821z"/></mask><g mask="url(#b)"><path fill="#d9d9d9" d="M0 0h212v48H0z"/></g><defs><radialGradient id="a" cx="0" cy="0" r="1" gradientTransform="matrix(-42.7766 -24.8276 25.0022 -40.3092 48.337 36)" gradientUnits="userSpaceOnUse"><stop stop-color="#ff8951"/><stop offset=".33" stop-color="#f64990"/><stop offset=".66" stop-color="#a448d1"/><stop offset="1" stop-color="#6e47fb"/></radialGradient></defs></svg>
